X: 0
T: There Dwelt In Old Judea
Z: R. Jackson
Z: Copyright © 2004 by Douglas D. Anderson
Z: Released To The Public Domain
L: 1/4
M: 4/4
Q: 1/4=120
V: P1 name="Staff"
%%MIDI program 1 19
K: C
[V: P1]  E | A c B ^G | A2 E F | E3/ D/ C D | E3 E | G3/ D/ E c | B3/ ^F/ G B/ c/ | d G A B | G3"^Chorus" G | c2 c G | (e/f/e/d/) c (c/ B/) | A A A d | (c2 B) G | c3/ d/ e E/ E/ | A3/ B/ c d | G3/ c/ c B c3|]
w: There dwelt in old Ju- de a, A mai- den fair to see, The moth- er mild and un- de filed, Of a bless- ed babe was she. Sing No- el, sing No-___ el And_ mer- ry be al- way,_ For Christ was born, in the ear- ly morn All on a Christ- mas day.

